!!!COM: Music21
!!!OTL: Rumba
!!!OMV: pezas_rumbas_rumba-4_rumba-partitura.musicxml
**kern
*part1
*staff1
*I"Bagpipes
*I'Bag
*clefG^2
*k[]
*M2/4
=1
!LO:TX:a:t=Andante
*MM96
!LO:TX:a:t=[quarter]=96
4.r
16eeLL
16ggJJ
=||
8cccL
16bbL
16aaJJ
16ggLL
16ff
16ee
16ddJJ
=
8aaL
16ggL
16ffJJ
8eeL
16ggL
16eeJJ
=
8ggL
16ffL
16eeJJ
16ddLL
16ff
16aa
16ffJJ
=
8aaL
16ggL
16ffJJ
8eeL
16eeL
16ggJJ
=
8cccL
16bbL
16aaJJ
16ggLL
16ff
16ee
16ddJJ
!!linebreak:original
=
8aaL
16ggL
16ffJJ
8eeL
16ggL
16eeJJ
!!linebreak:original
=
8ggL
16ffL
16eeJJ
16ddLL
16ff
16dd
16ffJJ
=
8eeL
8eeJ
8eeL
16eeL
16ggJJ
=||
8cccL
16bbL
16aaJJ
16ggLL
16ff
16ee
16ddJJ
=
8aaL
16ggL
16ffJJ
8eeL
16ggL
16eeJJ
=
8ggL
16ffL
16eeJJ
16ddLL
16ff
16aa
16ffJJ
=
8aaL
16ggL
16ffJJ
8eeL
16eeL
16ggJJ
!!linebreak:original
=
8cccL
16bbL
16aaJJ
16ggLL
16ff
16ee
16ddJJ
=
8aaL
16ggL
16ffJJ
8eeL
16ggL
16eeJJ
!!linebreak:original
=
8ggL
16ffL
16eeJJ
16ddLL
16ff
16dd
16ffJJ
=
8eeL
8eeJ
8eeL
16ggL
16eeJJ
=||
8ggL
16ffL
16eeJJ
16ddLL
16ff
16aa
16ffJJ
=
8aaL
16ggL
16ffJJ
8eeL
16ggL
16eeJJ
=
8ggL
16ffL
16eeJJ
16ddLL
16ee
16ff
16ggJJ
=
8aaL
16ggL
16ffJJ
8ggL
16ggL
16eeJJ
!!linebreak:original
=
8ggL
16ffL
16eeJJ
16ddLL
16ff
16aa
16ffJJ
=
8aaL
16ggL
16ffJJ
8eeL
16ggL
16eeJJ
=
8ggL
16ffL
16eeJJ
16ddLL
16ff
16dd
16ffJJ
=
8eeL
8eeJ
8eeL
16ggL
16eeJJ
=||
8ggL
16ffL
16eeJJ
16ddLL
16ff
16aa
16ffJJ
=
8aaL
16ggL
16ffJJ
8eeL
16ggL
16eeJJ
!!pagebreak:original
=
8ggL
16ffL
16eeJJ
16ddLL
16ee
16ff
16ggJJ
=
8aaL
16ggL
16ffJJ
8ggL
16ggL
16eeJJ
!!linebreak:original
=
8ggL
16ffL
16eeJJ
16ddLL
16ff
16aa
16ffJJ
=
8aaL
16ggL
16ffJJ
8eeL
16ggL
16eeJJ
=
8ggL
16ffL
16eeJJ
16ddLL
16ff
16dd
16ffJJ
=||
8eeL
8eeJ
8eeL
16eeL
16ggJJ
=||
8eeL
8eeJ
8eeL
8ggJ
=
8ccc
8r
4r
==
*-
!!!system-decoration: s1,s2
